X:4
T:Pipe Sergeant John Barclay
T:Seconds
R:March
L:1/8
C:Ian Duncan
M:6/8
K:D
[|: A | {g}f3 {gfg}f>ed | {gf}g>ag {afg}f2 a | {g}a>fd {e}A>df | {g}c<ea c<eA |
{g}f3 {gfg}f>ed | {gf}g>ag {afg}f2 a | {g}A>df {g}f<ad | {g}e<gc {Gdc}d2 :|]
[|: {e}A | {g}f3 a2 f | {g}e3 {g}d3 | a>fd {e}A>df | {g}c<(e(e) e3) |
["1"  {g}f3 a2 f | {g}e3 {g}d3 | {g}f>dA {g}d3 | {g}e3 {g}f2 ] :|]
["2" {g}(d3 d3) |  {g}e3 {g}d3 | {g}f>dA {g}d3 | {g}e3 {g}f2 ] |
[|: f | {gAGAG}A3 {g}B>{d}A{e}A | {g}B<de {Gdc}d2 a | {g}a>fd {e}A>df | {g}c<ea c<eA |
{gAGAG}A3 {g}B>{d}A{e}A | {g}B<de {Gdc}d2 f | {g}A>df {g}f<ad | {g}e<gc {Gdc}d2  :|]
[|: {e}A | {g}(d3 d3) |  {g}(e3 e2) g| {ag}(a3 a3)  | {g}c<(e(e) e3) |
["1" {g}(d3 d3) |  {g}(e3 {g}d3) | {g}f>dA {g}d3 | {g}e3 {g}f2 ] :|]
["2"  {gAGAG}A3 {g}B>{d}A{e}A | {g}B<de {g}f2 a | f>dA {g}d3 | {g}e3 {g}f2 ] |]

